Polonia/Otras Categorias/Kshutnikkrakow.svg

<?xml version="1.0" encoding="UTF-8" standalone="no"?>
<svg
   xmlns:dc="http://purl.org/dc/elements/1.1/"
   xmlns:cc="http://creativecommons.org/ns#"
   xmlns:rdf="http://www.w3.org/1999/02/22-rdf-syntax-ns#"
   xmlns:svg="http://www.w3.org/2000/svg"
   xmlns="http://www.w3.org/2000/svg"
   xmlns:sodipodi="http://sodipodi.sourceforge.net/DTD/sodipodi-0.dtd"
   xmlns:inkscape="http://www.inkscape.org/namespaces/inkscape"
   height="1000"
   viewBox="0 0 1000 1000"
   width="1000"
   version="1.1"
   id="svg44"
   sodipodi:docname="Kshutnikkrakow.svg"
   inkscape:version="1.0.1 (3bc2e813f5, 2020-09-07)">
  <metadata
     id="metadata50">
    <rdf:RDF>
      <cc:Work
         rdf:about="">
        <dc:format>image/svg+xml</dc:format>
        <dc:type
           rdf:resource="http://purl.org/dc/dcmitype/StillImage" />
        <dc:title></dc:title>
      </cc:Work>
    </rdf:RDF>
  </metadata>
  <defs
     id="defs48" />
  <sodipodi:namedview
     pagecolor="#ffffff"
     bordercolor="#666666"
     borderopacity="1"
     objecttolerance="10"
     gridtolerance="10"
     guidetolerance="10"
     inkscape:pageopacity="0"
     inkscape:pageshadow="2"
     inkscape:window-width="1920"
     inkscape:window-height="1017"
     id="namedview46"
     showgrid="false"
     inkscape:zoom="0.845"
     inkscape:cx="500"
     inkscape:cy="500"
     inkscape:window-x="-8"
     inkscape:window-y="-8"
     inkscape:window-maximized="1"
     inkscape:current-layer="svg44" />
  <g
     transform="matrix(2.0923681,0,0,2.0923681,-114.91038,32.592188)"
     id="g42">
    <path
       d="M 66.866997,154.70799 H 520.89801 v 137.358 H 66.866997 Z"
       fill="#9b9c68"
       id="path2" />
    <path
       d="M 71.032997,200.515 H 516.73399 v 41.578 H 71.032997 Z"
       fill="#4ba6dd"
       id="path4" />
    <path
       d="M 71.032997,246.257 H 516.73399 V 287.9 H 71.032997 Z"
       fill="#4f83ac"
       id="path6" />
    <g
       id="g40">
      <path
         d="M 71.032997,158.87199 H 408.40101 v 37.416 H 71.032997 Z"
         fill="#ffffff"
         id="path8" />
      <path
         d="m 462.599,158.87199 h 54.135 v 37.416 h -54.135 z"
         fill="#ffffff"
         id="path10" />
      <path
         d="m 105.291,287.396 v -17.665 h 9.023 v 17.665 h 8.139 v -40.633 h -8.139 v 15.017 h -9.023 v -15.017 h -8.075 v 40.633 z"
         fill="#ffffff"
         id="path12" />
      <path
         d="m 147.565,272.948 c 0,3.28 -0.315,5.425 -0.947,6.371 -0.692,0.947 -1.893,1.452 -3.659,1.452 -1.703,0 -2.901,-0.505 -3.597,-1.452 -0.694,-0.946 -1.009,-3.091 -1.009,-6.371 v -26.186 h -8.077 v 24.292 1.262 c 0,3.029 0.063,5.237 0.253,6.562 0.19,1.325 0.505,2.398 0.946,3.281 0.947,1.957 2.399,3.407 4.291,4.354 1.893,0.883 4.291,1.388 7.192,1.388 2.967,0 5.363,-0.505 7.193,-1.388 1.893,-0.947 3.281,-2.397 4.291,-4.354 0.441,-0.819 0.757,-1.956 0.883,-3.217 0.189,-1.324 0.316,-3.534 0.316,-6.625 v -25.554 h -8.077 v 26.185 z"
         fill="#ffffff"
         id="path14" />
      <path
         d="m 183.971,254.271 v -7.508 h -20.568 v 7.508 h 6.182 v 33.125 h 8.14 v -33.125 z"
         fill="#ffffff"
         id="path16" />
      <path
         d="m 209.65,262.347 c 0,2.082 0.064,4.353 0.316,6.752 0.188,2.397 0.504,5.047 0.882,7.887 -0.504,-1.956 -1.009,-3.66 -1.451,-5.111 -0.442,-1.451 -0.757,-2.523 -1.009,-3.218 l -8.202,-21.894 h -8.203 v 40.633 h 7.445 v -17.099 c 0,-2.713 -0.063,-5.11 -0.126,-7.066 -0.126,-2.02 -0.252,-3.788 -0.442,-5.363 0.19,0.632 0.378,1.514 0.694,2.65 0.631,2.398 1.009,3.786 1.136,4.102 l 8.959,22.776 h 7.509 v -40.633 h -7.509 v 15.584 z"
         fill="#ffffff"
         id="path18" />
      <path
         d="m 226.18201,246.763 h 8.266 v 40.633 h -8.266 z"
         fill="#ffffff"
         id="path20" />
      <path
         d="m 243.533,287.333 h 7.824 v -19.812 l 7.95,19.812 h 8.707 l -8.707,-22.084 8.392,-18.486 h -8.392 l -7.95,17.73 v -17.73 h -7.824 z"
         fill="#ffffff"
         id="path22" />
      <path
         d="m 295.711,287.333 h 7.888 v -19.812 l 7.887,19.812 h 8.708 l -8.708,-22.084 8.392,-18.486 h -8.392 l -7.887,17.73 v -17.73 h -7.888 z"
         fill="#ffffff"
         id="path24" />
      <path
         d="m 348.585,265.187 c 1.073,-1.768 1.578,-4.102 1.578,-7.003 0,-3.976 -1.009,-6.877 -3.091,-8.708 -1.704,-1.451 -4.229,-2.334 -7.572,-2.65 -0.819,-0.063 -1.64,-0.063 -2.523,-0.063 h -8.455 v 40.633 h 7.823 V 270.55 l 3.155,7.95 3.47,8.896 h 8.582 l -7.824,-18.55 c 2.145,-0.694 3.786,-1.955 4.857,-3.659 z m -7.318,-2.209 c -0.443,0.505 -1.072,0.884 -1.767,1.137 -0.631,0.188 -1.389,0.314 -2.208,0.314 -0.064,0 -0.252,0 -0.441,-0.062 -0.253,0 -0.378,0 -0.506,0 l 0.064,-11.294 c 0.126,0 0.251,-0.064 0.377,-0.064 0.19,0 0.378,0 0.694,0 0.758,0 1.389,0.064 2.02,0.253 0.758,0.189 1.389,0.568 1.893,1.073 0.821,0.883 1.199,2.335 1.199,4.291 0,1.892 -0.441,3.344 -1.325,4.352 z"
         fill="#ffffff"
         id="path26" />
      <path
         d="m 372.185,246.763 h -4.039 l -9.464,40.633 h 8.076 l 1.261,-7.13 h 4.166 3.973 l 1.389,7.13 h 8.077 l -9.023,-40.633 z m 0,27.193 h -2.651 c 0.442,-3.217 0.947,-6.372 1.388,-9.527 0.443,-3.027 0.884,-6.056 1.264,-9.023 0,-0.062 0.062,-0.124 0.062,-0.189 0.315,3.408 0.694,6.688 1.136,9.844 0.441,3.091 0.946,6.057 1.514,8.895 z"
         fill="#ffffff"
         id="path28" />
      <path
         d="m 392.563,287.333 h 7.887 v -19.812 l 7.95,19.812 h 8.707 l -8.707,-22.084 8.391,-18.486 H 408.4 l -7.95,17.73 v -17.73 h -7.887 z"
         fill="#ffffff"
         id="path30" />
      <path
         d="m 437.36,246.195 h -0.063 c -4.416,0 -7.888,1.893 -10.411,5.552 -2.523,3.724 -3.786,8.834 -3.786,15.332 0,6.562 1.199,11.672 3.722,15.332 2.523,3.66 5.994,5.49 10.475,5.49 h 0.063 c 4.29,0 7.761,-1.83 10.348,-5.49 2.65,-3.659 3.912,-8.58 3.912,-14.764 0,-6.688 -1.262,-11.987 -3.786,-15.773 -2.524,-3.724 -6.057,-5.617 -10.474,-5.679 z m 4.606,30.727 c -1.009,2.145 -2.587,3.217 -4.606,3.217 0,0 0,0 -0.063,0 -2.083,0 -3.597,-1.072 -4.607,-3.217 -1.009,-2.145 -1.577,-5.426 -1.577,-9.843 0,-4.417 0.567,-7.698 1.577,-9.843 1.01,-2.146 2.524,-3.218 4.607,-3.218 h 0.063 c 2.019,0 3.597,1.073 4.606,3.218 1.073,2.206 1.578,5.49 1.578,9.843 0,4.354 -0.504,7.635 -1.578,9.843 z"
         fill="#ffffff"
         id="path32" />
      <path
         d="m 489.225,266.259 c -0.315,1.893 -0.567,3.786 -0.694,5.679 -0.127,1.894 -0.19,3.722 -0.19,5.553 l -5.3,-30.728 h -6.752 l -5.299,30.728 c -0.126,-2.523 -0.315,-4.797 -0.568,-6.814 -0.188,-2.082 -0.44,-3.912 -0.694,-5.553 l -2.902,-18.361 h -8.203 l 8.203,40.633 h 7.318 l 4.479,-22.462 c 0.19,-0.883 0.379,-2.082 0.568,-3.659 0.126,-1.578 0.316,-3.407 0.505,-5.427 0.127,1.893 0.189,3.595 0.377,5.111 0.127,1.577 0.379,2.902 0.57,4.039 l 4.29,22.398 h 7.129 l 8.203,-40.633 h -8.012 z"
         fill="#ffffff"
         id="path34" />
      <path
         d="m 421.65,159.25 h -7.067 v 36.533 h 7.067 V 177.99 l 7.192,17.793 h 7.761 l -7.761,-19.876 7.509,-16.657 h -7.571 l -7.13,15.963 z"
         fill="#ffffff"
         id="path36" />
      <path
         d="m 457.739,180.45 c -0.692,-1.388 -2.27,-3.092 -4.732,-5.237 -1.83,-1.578 -3.028,-2.776 -3.534,-3.597 -0.505,-0.757 -0.756,-1.64 -0.756,-2.587 0,-1.072 0.377,-1.955 1.009,-2.587 0.694,-0.695 1.513,-1.009 2.587,-1.009 0.568,0 1.199,0.126 1.893,0.378 0.695,0.189 1.703,0.63 2.965,1.262 v -6.437 c -1.073,-0.631 -2.146,-1.135 -3.092,-1.388 -1.009,-0.315 -2.019,-0.442 -3.028,-0.442 -2.903,0 -5.238,0.947 -7.004,2.903 -1.766,1.955 -2.65,4.479 -2.65,7.635 0,2.018 0.441,3.848 1.262,5.425 0.819,1.641 2.334,3.407 4.606,5.427 0.251,0.252 0.631,0.63 1.198,1.072 1.893,1.578 2.84,3.092 2.84,4.479 0,1.136 -0.315,2.02 -1.009,2.65 -0.757,0.632 -1.704,1.009 -2.966,1.009 -0.883,0 -1.767,-0.251 -2.65,-0.63 -0.882,-0.379 -1.766,-1.009 -2.713,-1.83 v 7.634 c 0.883,0.568 1.831,1.009 2.902,1.262 1.011,0.315 2.208,0.442 3.408,0.442 3.217,0 5.804,-0.947 7.697,-2.903 1.831,-1.893 2.776,-4.543 2.776,-7.887 0.001,-1.952 -0.313,-3.593 -1.009,-5.044 z"
         fill="#ffffff"
         id="path38" />
    </g>
  </g>
</svg>

<svg height="1000" viewBox="0 0 1000 1000" width="1000" xmlns="http://www.w3.org/2000/svg"><g transform="matrix(6.9162334 0 0 6.9162334 -462.46776 -1069.9966)"><path d="M 66.866997 154.70799 H 520.898007 V 292.06599 H 66.866997 Z" fill="#9b9c68"/><path d="M 71.032997 200.515 H 516.733987 V 242.092999 H 71.032997 Z" fill="#4ba6dd"/><path d="M 71.032997 246.257 H 516.733987 V 287.900002 H 71.032997 Z" fill="#4f83ac"/><g><path d="M 71.032997 158.87199 H 408.401007 V 196.28799 H 71.032997 Z" fill="#fff"/><path d="M 462.599 158.87199 H 516.733998 V 196.28799 H 462.599 Z" fill="#fff"/><path d="M 105.291 287.396 L 105.291 269.731 L 114.314 269.731 L 114.314 287.396 L 122.453 287.396 L 122.453 246.763 L 114.314 246.763 L 114.314 261.78 L 105.291 261.78 L 105.291 246.763 L 97.216 246.763 L 97.216 287.396 Z" fill="#fff"/><path d="m 147.565 272.948 c 0 3.28 -.315 5.425 -.947 6.371 c -.692 .947 -1.893 1.452 -3.659 1.452 c -1.703 0 -2.901 -.505 -3.597 -1.452 c -.694 -.946 -1.009 -3.091 -1.009 -6.371 v -26.186 h -8.077 v 24.292 v 1.262 c 0 3.029 .063 5.237 .253 6.562 c .19 1.325 .505 2.398 .946 3.281 c .947 1.957 2.399 3.407 4.291 4.354 c 1.893 .883 4.291 1.388 7.192 1.388 c 2.967 0 5.363 -.505 7.193 -1.388 c 1.893 -.947 3.281 -2.397 4.291 -4.354 c .441 -.819 .757 -1.956 .883 -3.217 c .189 -1.324 .316 -3.534 .316 -6.625 v -25.554 h -8.077 v 26.185 z" fill="#fff"/><path d="M 183.971 254.271 L 183.971 246.763 L 163.403 246.763 L 163.403 254.271 L 169.585 254.271 L 169.585 287.396 L 177.725 287.396 L 177.725 254.271 Z" fill="#fff"/><path d="m 209.65 262.347 c 0 2.082 .064 4.353 .316 6.752 c .188 2.397 .504 5.047 .882 7.887 c -.504 -1.956 -1.009 -3.66 -1.451 -5.111 c -.442 -1.451 -.757 -2.523 -1.009 -3.218 l -8.202 -21.894 h -8.203 v 40.633 h 7.445 v -17.099 c 0 -2.713 -.063 -5.11 -.126 -7.066 c -.126 -2.02 -.252 -3.788 -.442 -5.363 c .19 .632 .378 1.514 .694 2.65 c .631 2.398 1.009 3.786 1.136 4.102 l 8.959 22.776 h 7.509 v -40.633 h -7.509 v 15.584 z" fill="#fff"/><path d="M 226.18201 246.763 H 234.44801 V 287.395999 H 226.18201 Z" fill="#fff"/><path d="M 243.533 287.333 L 251.357 287.333 L 251.357 267.521 L 259.307 287.333 L 268.014 287.333 L 259.307 265.249 L 267.699 246.763 L 259.307 246.763 L 251.357 264.493 L 251.357 246.763 L 243.533 246.763 Z" fill="#fff"/><path d="M 295.711 287.333 L 303.599 287.333 L 303.599 267.521 L 311.486 287.333 L 320.194 287.333 L 311.486 265.249 L 319.878 246.763 L 311.486 246.763 L 303.599 264.493 L 303.599 246.763 L 295.711 246.763 Z" fill="#fff"/><path d="m 348.585 265.187 c 1.073 -1.768 1.578 -4.102 1.578 -7.003 c 0 -3.976 -1.009 -6.877 -3.091 -8.708 c -1.704 -1.451 -4.229 -2.334 -7.572 -2.65 c -.819 -.063 -1.64 -.063 -2.523 -.063 h -8.455 v 40.633 h 7.823 V 270.55 l 3.155 7.95 l 3.47 8.896 h 8.582 l -7.824 -18.55 c 2.145 -.694 3.786 -1.955 4.857 -3.659 z m -7.318 -2.209 c -.443 .505 -1.072 .884 -1.767 1.137 c -.631 .188 -1.389 .314 -2.208 .314 c -.064 0 -.252 0 -.441 -.062 c -.253 0 -.378 0 -.506 0 l .064 -11.294 c .126 0 .251 -.064 .377 -.064 c .19 0 .378 0 .694 0 c .758 0 1.389 .064 2.02 .253 c .758 .189 1.389 .568 1.893 1.073 c .821 .883 1.199 2.335 1.199 4.291 c 0 1.892 -.441 3.344 -1.325 4.352 z" fill="#fff"/><path d="m 372.185 246.763 h -4.039 l -9.464 40.633 h 8.076 l 1.261 -7.13 h 4.166 h 3.973 l 1.389 7.13 h 8.077 l -9.023 -40.633 z m 0 27.193 h -2.651 c .442 -3.217 .947 -6.372 1.388 -9.527 c .443 -3.027 .884 -6.056 1.264 -9.023 c 0 -.062 .062 -.124 .062 -.189 c .315 3.408 .694 6.688 1.136 9.844 c .441 3.091 .946 6.057 1.514 8.895 z" fill="#fff"/><path d="M 392.563 287.333 L 400.45 287.333 L 400.45 267.521 L 408.4 287.333 L 417.107 287.333 L 408.4 265.249 L 416.791 246.763 L 408.4 246.763 L 400.45 264.493 L 400.45 246.763 L 392.563 246.763 Z" fill="#fff"/><path d="m 437.36 246.195 h -.063 c -4.416 0 -7.888 1.893 -10.411 5.552 c -2.523 3.724 -3.786 8.834 -3.786 15.332 c 0 6.562 1.199 11.672 3.722 15.332 c 2.523 3.66 5.994 5.49 10.475 5.49 h .063 c 4.29 0 7.761 -1.83 10.348 -5.49 c 2.65 -3.659 3.912 -8.58 3.912 -14.764 c 0 -6.688 -1.262 -11.987 -3.786 -15.773 c -2.524 -3.724 -6.057 -5.617 -10.474 -5.679 z m 4.606 30.727 c -1.009 2.145 -2.587 3.217 -4.606 3.217 c 0 0 0 0 -.063 0 c -2.083 0 -3.597 -1.072 -4.607 -3.217 c -1.009 -2.145 -1.577 -5.426 -1.577 -9.843 c 0 -4.417 .567 -7.698 1.577 -9.843 c 1.01 -2.146 2.524 -3.218 4.607 -3.218 h .063 c 2.019 0 3.597 1.073 4.606 3.218 c 1.073 2.206 1.578 5.49 1.578 9.843 c 0 4.354 -.504 7.635 -1.578 9.843 z" fill="#fff"/><path d="m 489.225 266.259 c -.315 1.893 -.567 3.786 -.694 5.679 c -.127 1.894 -.19 3.722 -.19 5.553 l -5.3 -30.728 h -6.752 l -5.299 30.728 c -.126 -2.523 -.315 -4.797 -.568 -6.814 c -.188 -2.082 -.44 -3.912 -.694 -5.553 l -2.902 -18.361 h -8.203 l 8.203 40.633 h 7.318 l 4.479 -22.462 c .19 -.883 .379 -2.082 .568 -3.659 c .126 -1.578 .316 -3.407 .505 -5.427 c .127 1.893 .189 3.595 .377 5.111 c .127 1.577 .379 2.902 .57 4.039 l 4.29 22.398 h 7.129 l 8.203 -40.633 h -8.012 z" fill="#fff"/><path d="M 421.65 159.25 L 414.583 159.25 L 414.583 195.783 L 421.65 195.783 L 421.65 177.99 L 428.842 195.783 L 436.603 195.783 L 428.842 175.907 L 436.351 159.25 L 428.78 159.25 L 421.65 175.213 Z" fill="#fff"/><path d="m 457.739 180.45 c -.692 -1.388 -2.27 -3.092 -4.732 -5.237 c -1.83 -1.578 -3.028 -2.776 -3.534 -3.597 c -.505 -.757 -.756 -1.64 -.756 -2.587 c 0 -1.072 .377 -1.955 1.009 -2.587 c .694 -.695 1.513 -1.009 2.587 -1.009 c .568 0 1.199 .126 1.893 .378 c .695 .189 1.703 .63 2.965 1.262 v -6.437 c -1.073 -.631 -2.146 -1.135 -3.092 -1.388 c -1.009 -.315 -2.019 -.442 -3.028 -.442 c -2.903 0 -5.238 .947 -7.004 2.903 c -1.766 1.955 -2.65 4.479 -2.65 7.635 c 0 2.018 .441 3.848 1.262 5.425 c .819 1.641 2.334 3.407 4.606 5.427 c .251 .252 .631 .63 1.198 1.072 c 1.893 1.578 2.84 3.092 2.84 4.479 c 0 1.136 -.315 2.02 -1.009 2.65 c -.757 .632 -1.704 1.009 -2.966 1.009 c -.883 0 -1.767 -.251 -2.65 -.63 c -.882 -.379 -1.766 -1.009 -2.713 -1.83 v 7.634 c .883 .568 1.831 1.009 2.902 1.262 c 1.011 .315 2.208 .442 3.408 .442 c 3.217 0 5.804 -.947 7.697 -2.903 c 1.831 -1.893 2.776 -4.543 2.776 -7.887 c .001 -1.952 -.313 -3.593 -1.009 -5.044 z" fill="#fff"/></g></g></svg>
